flaticon/online-marketing/email.svg

<svg xmlns="http://www.w3.org/2000/svg" width="32" height="32" viewBox="0 0 24 24">
    <path d="M 23.820312 10.089844 L 20.757812 8.058594 L 20.757812 1.269531 C 20.757812 1.046875 20.578125 0.871094 20.359375 0.871094 L 3.640625 0.871094 C 3.417969 0.871094 3.242188 1.046875 3.242188 1.269531 L 3.242188 8.058594 L 0.179688 10.089844 C 0.0703125 10.164062 0 10.285156 0 10.421875 L 0 22.730469 C 0 22.953125 0.179688 23.128906 0.398438 23.128906 L 23.601562 23.128906 C 23.820312 23.128906 24 22.953125 24 22.730469 L 24 10.421875 C 24 10.285156 23.929688 10.164062 23.820312 10.089844 Z M 3.242188 11.480469 L 1.996094 10.820312 L 3.242188 10.820312 Z M 0.796875 11.082031 L 9.9375 15.933594 L 0.796875 21.992188 Z M 12 15.515625 L 22.285156 22.335938 L 1.714844 22.335938 Z M 14.0625 15.933594 L 23.203125 11.082031 L 23.203125 21.992188 Z M 20.757812 10.820312 L 22.003906 10.820312 L 20.757812 11.480469 Z M 22.285156 10.023438 L 20.757812 10.023438 L 20.757812 9.011719 Z M 19.960938 1.664062 L 19.960938 11.902344 L 13.308594 15.433594 L 12.21875 14.710938 C 12.085938 14.621094 11.914062 14.621094 11.78125 14.710938 L 10.691406 15.433594 L 4.035156 11.902344 L 4.035156 1.664062 Z M 3.242188 10.023438 L 1.714844 10.023438 L 3.242188 9.011719 Z M 3.242188 10.023438"/>
    <path d="M 12 11.324219 L 15.167969 11.324219 C 15.386719 11.324219 15.5625 11.144531 15.5625 10.925781 C 15.5625 10.707031 15.386719 10.53125 15.167969 10.53125 L 12 10.53125 C 10.472656 10.53125 9.230469 9.285156 9.230469 7.761719 L 9.230469 7.644531 C 9.230469 6.117188 10.472656 4.875 12 4.875 C 13.527344 4.875 14.769531 6.117188 14.769531 7.644531 L 14.769531 7.9375 C 14.769531 8.265625 14.5 8.535156 14.167969 8.535156 C 13.839844 8.535156 13.570312 8.265625 13.570312 7.9375 L 13.570312 7.378906 C 13.570312 6.433594 12.800781 5.660156 11.851562 5.660156 C 10.90625 5.660156 10.136719 6.433594 10.136719 7.378906 C 10.136719 8.324219 10.90625 9.097656 11.851562 9.097656 C 12.285156 9.097656 12.683594 8.933594 12.984375 8.667969 C 13.230469 9.066406 13.667969 9.332031 14.167969 9.332031 C 14.9375 9.332031 15.5625 8.703125 15.5625 7.9375 L 15.5625 7.644531 C 15.5625 5.675781 13.964844 4.078125 12 4.078125 C 10.035156 4.078125 8.433594 5.675781 8.433594 7.644531 L 8.433594 7.761719 C 8.433594 9.726562 10.035156 11.324219 12 11.324219 Z M 11.851562 8.300781 C 11.34375 8.300781 10.929688 7.886719 10.929688 7.378906 C 10.929688 6.871094 11.34375 6.457031 11.851562 6.457031 C 12.363281 6.457031 12.773438 6.871094 12.773438 7.378906 C 12.773438 7.886719 12.363281 8.300781 11.851562 8.300781 Z M 11.851562 8.300781"/>
</svg>

<svg xmlns="http://www.w3.org/2000/svg" width="32" height="32" viewBox="0 0 24 24">
    <path d="M23.82 10.09l-3.062-2.031v-6.79a.398.398 0 0 0-.399-.398H3.641a.395.395 0 0 0-.399.399v6.789L.18 10.089a.4.4 0 0 0-.18.333V22.73c0 .223.18.399.398.399h23.204A.398.398 0 0 0 24 22.73V10.422a.4.4 0 0 0-.18-.332zM3.242 11.48l-1.246-.66h1.246zm-2.445-.398l9.14 4.852-9.14 6.058zM12 15.516l10.285 6.82H1.715zm2.063.418l9.14-4.852v10.91zm6.695-5.114h1.246l-1.246.66zm1.527-.797h-1.527V9.012zm-2.324-8.359v10.238l-6.652 3.532-1.09-.723a.389.389 0 0 0-.438 0l-1.09.723-6.656-3.532V1.664zm-16.719 8.36H1.715l1.527-1.012zm0 0"/>
    <path d="M12 11.324h3.168a.397.397 0 0 0 0-.793H12a2.775 2.775 0 0 1-2.77-2.77v-.116A2.772 2.772 0 0 1 12 4.875a2.772 2.772 0 0 1 2.77 2.77v.293a.6.6 0 0 1-1.2 0v-.56c0-.944-.77-1.718-1.718-1.718a1.72 1.72 0 0 0-1.715 1.719c0 .945.77 1.719 1.715 1.719a1.71 1.71 0 0 0 1.132-.43 1.39 1.39 0 0 0 1.184.664c.77 0 1.395-.629 1.395-1.395v-.292A3.567 3.567 0 0 0 12 4.078a3.57 3.57 0 0 0-3.566 3.567v.117A3.57 3.57 0 0 0 12 11.324zm-.148-3.023a.924.924 0 0 1-.922-.922.921.921 0 1 1 .922.922zm0 0"/>
</svg>
